assets/icons/information.svg

<svg width="17" height="38" viewBox="0 0 17 38" fill="none" xmlns="http://www.w3.org/2000/svg">
<path d="M14.6608 0.251465H3.04532C1.75502 0.251465 0.709229 1.39939 0.709229 2.81476V34.9273C0.709229 36.3427 1.75502 37.4906 3.04532 37.4906H14.6608C15.9507 37.4906 16.9969 36.3427 16.9969 34.9273V2.81476C16.9969 1.39939 15.9507 0.251465 14.6608 0.251465ZM7.32076 2.84168H11.106C11.2065 2.84168 11.2886 2.93139 11.2886 3.04204C11.2886 3.15226 11.2065 3.24198 11.106 3.24198H7.32076C7.21992 3.24198 7.13815 3.15226 7.13815 3.04204C7.13854 2.93139 7.22031 2.84168 7.32076 2.84168ZM8.88555 36.458C8.20458 36.458 7.65287 35.8527 7.65287 35.105C7.65287 34.3574 8.20458 33.7521 8.88555 33.7521C9.56613 33.7521 10.1182 34.3574 10.1182 35.105C10.1182 35.8527 9.56613 36.458 8.88555 36.458ZM16.1531 33.0049H1.48793V4.8795H16.1531V33.0049Z" fill="#F5F5F5"/>
</svg>

<svg xmlns="http://www.w3.org/2000/svg" width="17" height="38" fill="none" xmlns:v="https://vecta.io/nano"><path d="M14.66.25H3.045C1.755.25.71 1.4.71 2.815v32.113c0 1.415 1.046 2.563 2.336 2.563H14.66c1.3 0 2.336-1.148 2.336-2.563V2.815C16.997 1.4 15.95.25 14.66.25zm-7.34 2.6h3.785c.1 0 .183.1.183.2s-.082.2-.183.2H7.32c-.1 0-.183-.1-.183-.2s.082-.2.183-.2zm1.565 33.616c-.68 0-1.233-.605-1.233-1.353s.552-1.353 1.233-1.353 1.233.605 1.233 1.353-.552 1.353-1.233 1.353zm7.268-3.453H1.488V4.88h14.665v28.125z" fill="#f5f5f5"/></svg>
